X:1
T:Title
%%score { ( 1 4 ) | ( 2 3 ) }
L:1/8
M:6/8
K:A
V:1 treble nm="Grand Piano"
V:4 treble 
V:2 bass 
V:3 bass 
V:1
 z3 z2[Q:1/4=100] E | EFG Adc | c2 B [CA]2 [EA] | [FA]2 [FB] [FA]2 [DF] |[M:5/8] [CE]-[CE]- [CE]3 | %5
[M:1/8] [CE] |[M:3/4] [DE]2 [Gd] [Gd]2 [DE] | [CE]2 [Ec] [Ec]2 [EA] | .B2 z2 z2 | %9
[M:5/8] [CA]-[CA]- [CA]3 |[M:1/8] [CE] |[M:3/4] FA A A2 F | E4 z2 | FA A A2 F |[M:5/8] E3 z2 | %15
[M:1/8] [CE] |[M:3/4] c3 A2 E | d3 c2 e | ec A c2 B |[M:5/8] B-B- B3 |[M:1/8] E | %21
[M:3/4] [CA]3 [Ec]2 [EA] |[M:7/8] [DB]3 [Fd]3 [Fd] |[M:3/4] cB A [Ac]2 [GB] | %24
[M:5/8] [EA]-[EA]- [EA]3 |] %25
V:2
 z3 z2 E, | E,F,G, z[K:treble] F[A,E] | [E,A,E]2 [E,G,D] [A,,A,]2 [C,A,] | %3
 [D,A,]2 [D,D] [D,D]2 [D,A,] |[M:5/8] [A,,A,]-[A,,A,]- [A,,A,]3 |[M:1/8] [A,,A,] | %6
[M:3/4] [E,G,]2 [E,B,] [E,B,]2 [E,G,] | [A,,A,]2 [A,,A,] [A,,A,]2 [C,A,] | %8
 [D,A,]2 [D,A,] [E,A,]2 [E,G,] |[M:5/8] [A,,E,]-[A,,E,]- [A,,E,]3 |[M:1/8] [A,,A,] | %11
[M:3/4] [D,A,D][D,F,D] [D,F,D] [D,F,D]2 [D,A,D] | [A,,A,]2 [B,,G,] [C,A,]2 [A,,A,] | %13
 [D,A,D][D,F,D] [D,F,D] [D,F,D]2 [D,A,D] |[M:5/8] [A,,A,]2 [B,,G,] [C,A,]2 |[M:1/8] [A,,A,] | %16
[M:3/4][K:treble] [A,E]3 [A,CE]2 [A,C] | [A,FA]3 [A,EA]2 [A,CA] | %18
 [A,CA][A,EA][K:bass] [A,CE] [F,A,^D]2 [F,A,D] |[M:5/8] [E,G,D]-[E,G,D]- [E,G,D]3 | %20
[M:1/8] [E,G,D] |[M:3/4] [A,,A,]3 [A,,A,]2 [C,A,] |[M:7/8] [D,F,]3 [B,,B,]3 [B,,B,] | %23
[M:3/4] [E,A,E][E,DE] [E,CE] [E,E]2 [E,D] |[M:5/8] [A,C]-[A,C]- [A,C]3 |] %25
V:3
 x6 | z3 .A,3[K:treble] | x6 | x6 |[M:5/8] x5 |[M:1/8] x |[M:3/4] x6 | x6 | x6 |[M:5/8] x5 | %10
[M:1/8] x |[M:3/4] x6 | x6 | x6 |[M:5/8] x5 |[M:1/8] x |[M:3/4][K:treble] x6 | x6 | x2[K:bass] x4 | %19
[M:5/8] x5 |[M:1/8] x |[M:3/4] x6 |[M:7/8] x7 |[M:3/4] x6 |[M:5/8] x5 |] %25
V:4
 x6 | x6 | x6 | x6 |[M:5/8] x5 |[M:1/8] x |[M:3/4] x6 | x6 | F-[Fc] [Fd] [Ec]2 [DB] |[M:5/8] x5 | %10
[M:1/8] x |[M:3/4] x6 | C2 D E2 [CE] | x6 |[M:5/8] C2 D E2 |[M:1/8] x |[M:3/4] x6 | x6 | x6 | %19
[M:5/8] x5 |[M:1/8] x |[M:3/4] x6 |[M:7/8] x7 |[M:3/4] x6 |[M:5/8] x5 |] %25

